X:1
T:Buxtehude - Aria:  La Capricciosa in G Minor.
%%score { ( 1 2 4 ) | ( 3 5 ) }
L:1/8
Q:1/4=120
M:4/4
K:G
V:1 treble nm="Harpsichord" snm="Hch."
V:2 treble 
V:4 treble 
V:3 bass 
V:5 bass 
V:1
"^Partita 31"!f! z/ g/f/g/ z/ g/f/g/ z/ g/f/g/ z/ g/f/g/ | %1
 z/ g/f/g/ z/ g/f/g/ z/ g/f/g/ z/ g/f/g/ |!f! z/ g/f/g/ z/ g/f/g/ z/ g/f/g/ z/ g/f/g/ | %3
!f! z/ g/f/g/ z/ g/f/g/ z/ g/f/g/ z/ g/f/g/ ::!f! z/ g/f/g/ z/ g/f/g/ z/ g/f/g/ z/ g/f/g/ | %5
!f! z/ g/f/g/ z/ g/f/g/ z/ g/f/g/ z/ g/f/g/ |!f! z/ g/f/g/ z/ g/f/g/ z/ g/f/g/ z/ g/f/g/ | %7
!f! z/ g/f/g/ z/ g/f/g/ z/ g/f/g/ z/ g/f/g/ :| %8
V:2
 [Gd]2 [Gd]2 [Ge]2 [ce]2 | [Bd]2 [Ac]2 [GB]2 z2 | B2 B2 c2 B2 | A2 A2 G2 G2 :: B2 B2 c2 B2 | %5
 A2 c2 B2 G2 | B2 B2 c2 B2 | A2 A2 G2 G2 :| %8
V:3
 B,2 B,2 C2 C2 | D2 D2 E2 E2 | G2 E2 C2 D2 | E2 D2 B,2 z2 :: D2 G2 E2 D2 | E2 C2 D2 z2 | %6
 x2 G,2 E,2 [D,G,]2 | [E,A,]2 [A,C]2 B,2 z2 :| %8
V:4
 x8 | x6 G2 | x8 | x8 :: x8 | x8 | x8 | x8 :| %8
V:5
 x8 | x8 | E2 G,2 A,2 B,2 | C2 z D, G,2 G,,2 :: G,2 G,2 A,2 B,2 | C2 A,2 G,2 z2 | %6
 G,2 G,,2 A,,2 B,,2 | C,2 D,2 G,2 G,,2 :| %8

